!! 00000] TT[00
!!!OTL: Linzhong laile bai qunzi
!!!ARE: Guangxi, Debao
!! Ethnic Group: Zhuang
!! II, 532
!!!SCT: C1174
!!!YEM: Copyright 1995, estate of Helmut Schaffrath.
**kern
*ICvox
*Ivox
!! 3+2 metric grouping
*M5/4
*k[]
*C:
{8a
8cc
4cc
4ee
8ee
4.r
=1
4cc
4ee
2.ee}
=2
{4ee
4ee
4cc
8cc
4a
8cc
=3
4ee
8dd
4ee
8cc
2a}
=4
{4cc
4.a
8r
4cc
4ee
=5
8dd
8ee
4cc
8dd
8ee
4ee
4r}
=6
{4ee
8dd
8ee
4cc
8cc
4a
8e
=7
4ee
8dd
8ee
4cc
2a}
==
!!!AGN: Shange, Beilu shange
!! Im Buch zweistimmig notiert, Oberstimme jedoch original.
!!!ONB: ESAC (Essen Associative Code) Database: CHINA_078
!!!AMT: simple quintuple
!!!AIN: vox
!!!EED: Helmut Schaffrath
!!!EEV: 1.0
*-
